src/assets/svg/icons/fa/nuevos/classic/duotone/ranking-star classic duotone.svg

<svg xmlns="http://www.w3.org/2000/svg" viewBox="0 0 640 512"><defs><style>.fa-secondary{opacity:.4}</style></defs><path class="fa-primary" d="M330.2 6.332L353.8 54.11L406.1 61.65C415.4 63.09 419.4 74.59 412.6 81.41L374.6 118.1L383.6 170.1C384.1 179.5 375.3 186.7 366.7 182.4L320.2 157.9L273.3 182.7C264.7 187 255 179.8 256.4 170.5L265.4 118.4L227.4 81.41C220.6 74.59 224.6 63.09 233.9 61.65L286.2 54.11L309.8 6.332C314.1-2.289 326.3-1.93 330.2 6.332H330.2z"/><path class="fa-secondary" d="M224 288C224 270.3 238.3 256 256 256H384C401.7 256 416 270.3 416 288V480C416 497.7 401.7 512 384 512H256C238.3 512 224 497.7 224 480V288zM0 352C0 334.3 14.33 320 32 320H160C177.7 320 192 334.3 192 352V480C192 497.7 177.7 512 160 512H32C14.33 512 0 497.7 0 480V352zM608 384C625.7 384 640 398.3 640 416V480C640 497.7 625.7 512 608 512H480C462.3 512 448 497.7 448 480V416C448 398.3 462.3 384 480 384H608z"/></svg>

<svg xmlns="http://www.w3.org/2000/svg" viewBox="0 0 640 512"><!--! Font Awesome Pro 6.4.0 by @fontawesome - https://fontawesome.com License - https://fontawesome.com/license (Commercial License) Copyright 2023 Fonticons, Inc. --><defs><style>.fa-secondary{opacity:.4}</style></defs><path class="fa-primary" d="M330.2 6.3l23.6 47.8 52.3 7.5c9.3 1.4 13.2 12.9 6.4 19.8l-38 36.6 9 52.1c1.4 9.3-8.2 16.5-16.8 12.2l-46.6-24.4-46.9 24.8c-8.6 4.3-18.3-2.9-16.8-12.2l9-52.1-38-37c-6.8-6.8-2.9-18.3 6.4-19.8l52.3-7.5L309.8 6.3c4.3-8.6 16.5-8.3 20.4 0z"/><path class="fa-secondary" d="M224 288c0-17.7 14.3-32 32-32H384c17.7 0 32 14.3 32 32V480c0 17.7-14.3 32-32 32H256c-17.7 0-32-14.3-32-32V288zM0 352c0-17.7 14.3-32 32-32H160c17.7 0 32 14.3 32 32V480c0 17.7-14.3 32-32 32H32c-17.7 0-32-14.3-32-32V352zm480 32H608c17.7 0 32 14.3 32 32v64c0 17.7-14.3 32-32 32H480c-17.7 0-32-14.3-32-32V416c0-17.7 14.3-32 32-32z"/></svg>
